icons/themes/default/expand.svg

<svg viewBox="0 0 16 16" fill="none" xmlns="http://www.w3.org/2000/svg">
<path d="M14.5 1.5H15V1H14.5V1.5ZM1.5 14.5H1V15H1.5V14.5ZM14.2626 2.44446C14.4579 2.2492 14.4579 1.93262 14.2626 1.73736C14.0674 1.54209 13.7508 1.54209 13.5555 1.73736L14.2626 2.44446ZM1.73736 13.5555C1.54209 13.7508 1.54209 14.0674 1.73736 14.2626C1.93262 14.4579 2.2492 14.4579 2.44446 14.2626L1.73736 13.5555ZM9.37879 1.5V2H14.5V1.5V1H9.37879V1.5ZM14.5 1.5H14V6.62121H14.5H15V1.5H14.5ZM1.5 14.5H2V9.37879H1.5H1V14.5H1.5ZM1.5 14.5V15H6.62121V14.5V14H1.5V14.5ZM13.9091 2.09091L13.5555 1.73736L9.2222 6.07069L9.57576 6.42424L9.92931 6.7778L14.2626 2.44446L13.9091 2.09091ZM6.42424 9.57576L6.07069 9.2222L1.73736 13.5555L2.09091 13.9091L2.44446 14.2626L6.7778 9.92931L6.42424 9.57576Z" fill="currentColor"/>
</svg>

<svg xmlns="http://www.w3.org/2000/svg" fill="none" viewBox="0 0 16 16">
  <path fill="currentColor" d="M14.5 1.5h.5V1h-.5v.5Zm-13 13H1v.5h.5v-.5ZM14.263 2.444a.5.5 0 1 0-.707-.707l.707.707ZM1.737 13.555a.5.5 0 1 0 .707.708l-.707-.707ZM9.38 1.5V2H14.5V1H9.379v.5Zm5.121 0H14v5.121h1V1.5h-.5Zm-13 13H2V9.379H1V14.5h.5Zm0 0v.5h5.121v-1H1.5v.5ZM13.91 2.09l-.354-.353-4.334 4.334.354.353.353.354 4.334-4.334-.354-.353ZM6.423 9.577l-.353-.354-4.334 4.334.354.353.353.354 4.334-4.334-.354-.353Z"/>
</svg>
